build/img/wrench.svg

<svg width="24" height="24" viewBox="0 0 24 24" fill="none" xmlns="http://www.w3.org/2000/svg">
<path d="M7 3.22C6.69423 3.28145 6.39588 3.37532 6.11 3.5L7.11 4.5L8.71 6.11C9.05014 6.45116 9.24114 6.91325 9.24114 7.395C9.24114 7.87675 9.05014 8.33884 8.71 8.68V8.68C8.36884 9.02014 7.90675 9.21113 7.425 9.21113C6.94326 9.21113 6.48116 9.02014 6.14 8.68L4.45 7L3.45 6C3.08709 6.85203 2.97306 7.78946 3.12113 8.70365C3.26921 9.61783 3.67332 10.4713 4.28664 11.1652C4.89995 11.8592 5.69736 12.365 6.58643 12.6243C7.47551 12.8835 8.41985 12.8855 9.31 12.63L16.79 20.12C17.2374 20.5621 17.841 20.8101 18.47 20.8101C19.099 20.8101 19.7026 20.5621 20.15 20.12V20.12C20.5921 19.6726 20.8401 19.069 20.8401 18.44C20.8401 17.811 20.5921 17.2074 20.15 16.76L12.71 9.36C12.9441 8.54892 12.9642 7.69106 12.7683 6.86991C12.5725 6.04876 12.1675 5.29228 11.5926 4.67411C11.0177 4.05593 10.2926 3.59711 9.48777 3.34229C8.68297 3.08748 7.82591 3.04535 7 3.22" stroke="#94A0B1" stroke-width="1.5" stroke-linecap="round" stroke-linejoin="round"/>
</svg>

<svg width="24" height="24" viewBox="0 0 24 24" fill="none" xmlns="http://www.w3.org/2000/svg"><path d="M7 3.22a4.39 4.39 0 00-.89.28l1 1 1.6 1.61a1.82 1.82 0 010 2.57v0a1.82 1.82 0 01-2.57 0L4.45 7l-1-1a4.9 4.9 0 005.86 6.63l7.48 7.49a2.39 2.39 0 003.36 0v0a2.39 2.39 0 000-3.36l-7.44-7.4A4.889 4.889 0 007 3.22" stroke="#94A0B1" stroke-width="1.5" stroke-linecap="round" stroke-linejoin="round"/></svg>
